images/50455491.svg

<?xml version="1.0" encoding="UTF-8"?>
<svg xmlns="http://www.w3.org/2000/svg" xmlns:xlink="http://www.w3.org/1999/xlink" width="300pt" height="300pt" viewBox="0 0 300 300" version="1.1">
<defs>
<g>
<symbol overflow="visible" id="glyph0-0">
<path style="stroke:none;" d="M 0.546875 1.9375 L 0.546875 -7.75 L 6.046875 -7.75 L 6.046875 1.9375 Z M 1.171875 1.328125 L 5.4375 1.328125 L 5.4375 -7.140625 L 1.171875 -7.140625 Z M 1.171875 1.328125 "/>
</symbol>
<symbol overflow="visible" id="glyph0-1">
<path style="stroke:none;" d="M 1.078125 -8.015625 L 2.171875 -8.015625 L 2.171875 -4.734375 L 6.109375 -4.734375 L 6.109375 -8.015625 L 7.1875 -8.015625 L 7.1875 0 L 6.109375 0 L 6.109375 -3.8125 L 2.171875 -3.8125 L 2.171875 0 L 1.078125 0 Z M 1.078125 -8.015625 "/>
</symbol>
<symbol overflow="visible" id="glyph0-2">
<path style="stroke:none;" d="M 4.328125 -7.28125 C 3.546875 -7.28125 2.921875 -6.984375 2.453125 -6.390625 C 1.992188 -5.804688 1.765625 -5.007812 1.765625 -4 C 1.765625 -2.988281 1.992188 -2.1875 2.453125 -1.59375 C 2.921875 -1.007812 3.546875 -0.71875 4.328125 -0.71875 C 5.117188 -0.71875 5.742188 -1.007812 6.203125 -1.59375 C 6.660156 -2.1875 6.890625 -2.988281 6.890625 -4 C 6.890625 -5.007812 6.660156 -5.804688 6.203125 -6.390625 C 5.742188 -6.984375 5.117188 -7.28125 4.328125 -7.28125 Z M 4.328125 -8.171875 C 5.453125 -8.171875 6.351562 -7.789062 7.03125 -7.03125 C 7.707031 -6.28125 8.046875 -5.269531 8.046875 -4 C 8.046875 -2.738281 7.707031 -1.726562 7.03125 -0.96875 C 6.351562 -0.21875 5.453125 0.15625 4.328125 0.15625 C 3.203125 0.15625 2.300781 -0.21875 1.625 -0.96875 C 0.957031 -1.71875 0.625 -2.726562 0.625 -4 C 0.625 -5.269531 0.957031 -6.28125 1.625 -7.03125 C 2.300781 -7.789062 3.203125 -8.171875 4.328125 -8.171875 Z M 4.328125 -8.171875 "/>
</symbol>
<symbol overflow="visible" id="glyph0-3">
<path style="stroke:none;" d="M 1.078125 -8.015625 L 2.546875 -8.015625 L 6.09375 -1.3125 L 6.09375 -8.015625 L 7.15625 -8.015625 L 7.15625 0 L 5.6875 0 L 2.125 -6.703125 L 2.125 0 L 1.078125 0 Z M 1.078125 -8.015625 "/>
</symbol>
</g>
</defs>
<g id="surface9309">
<rect x="0" y="0" width="300" height="300" style="fill:rgb(100%,100%,100%);fill-opacity:1;stroke:none;"/>
<path style="fill:none;stroke-width:1.2;stroke-linecap:butt;stroke-linejoin:miter;stroke:rgb(100%,0%,0%);stroke-opacity:1;stroke-miterlimit:10;" d="M 35.25 127.648438 L 46.148438 135.050781 "/>
<path style="fill:none;stroke-width:1.2;stroke-linecap:butt;stroke-linejoin:miter;stroke:rgb(0%,0%,0%);stroke-opacity:1;stroke-miterlimit:10;" d="M 46.148438 135.050781 L 57.050781 142.449219 "/>
<path style=" stroke:none;fill-rule:nonzero;fill:rgb(100%,100%,100%);fill-opacity:1;" d="M 18.25 121.148438 L 35.25 121.148438 L 35.25 134.148438 L 18.25 134.148438 Z M 18.25 121.148438 "/>
<g style="fill:rgb(100%,0%,0%);fill-opacity:1;">
  <use xlink:href="#glyph0-1" x="18.25" y="131.049805"/>
  <use xlink:href="#glyph0-2" x="26.274414" y="131.049805"/>
</g>
<path style="fill:none;stroke-width:1.2;stroke-linecap:butt;stroke-linejoin:miter;stroke:rgb(0%,0%,0%);stroke-opacity:1;stroke-miterlimit:10;" d="M 57.050781 142.449219 L 80.765625 130.972656 "/>
<path style="fill:none;stroke-width:1.2;stroke-linecap:butt;stroke-linejoin:miter;stroke:rgb(0%,0%,0%);stroke-opacity:1;stroke-miterlimit:10;" d="M 62.121094 146.882812 L 81.09375 137.699219 "/>
<path style="fill:none;stroke-width:1.2;stroke-linecap:butt;stroke-linejoin:miter;stroke:rgb(0%,0%,0%);stroke-opacity:1;stroke-miterlimit:10;" d="M 55.132812 168.730469 L 57.050781 142.449219 "/>
<path style="fill:none;stroke-width:1.2;stroke-linecap:butt;stroke-linejoin:miter;stroke:rgb(0%,0%,0%);stroke-opacity:1;stroke-miterlimit:10;" d="M 80.765625 130.972656 L 102.566406 145.773438 "/>
<path style="fill:none;stroke-width:1.2;stroke-linecap:butt;stroke-linejoin:miter;stroke:rgb(0%,0%,0%);stroke-opacity:1;stroke-miterlimit:10;" d="M 102.566406 145.773438 L 100.648438 172.050781 "/>
<path style="fill:none;stroke-width:1.2;stroke-linecap:butt;stroke-linejoin:miter;stroke:rgb(0%,0%,0%);stroke-opacity:1;stroke-miterlimit:10;" d="M 96.191406 147.949219 L 94.65625 168.972656 "/>
<path style="fill:none;stroke-width:1.2;stroke-linecap:butt;stroke-linejoin:miter;stroke:rgb(0%,0%,0%);stroke-opacity:1;stroke-miterlimit:10;" d="M 102.566406 145.773438 L 126.28125 134.292969 "/>
<path style="fill:none;stroke-width:1.2;stroke-linecap:butt;stroke-linejoin:miter;stroke:rgb(0%,0%,0%);stroke-opacity:1;stroke-miterlimit:10;" d="M 100.648438 172.050781 L 76.929688 183.53125 "/>
<path style="fill:none;stroke-width:1.2;stroke-linecap:butt;stroke-linejoin:miter;stroke:rgb(0%,0%,0%);stroke-opacity:1;stroke-miterlimit:10;" d="M 76.929688 183.53125 L 55.132812 168.730469 "/>
<path style="fill:none;stroke-width:1.2;stroke-linecap:butt;stroke-linejoin:miter;stroke:rgb(0%,0%,0%);stroke-opacity:1;stroke-miterlimit:10;" d="M 78.234375 176.921875 L 60.792969 165.082031 "/>
<path style="fill:none;stroke-width:1.2;stroke-linecap:butt;stroke-linejoin:miter;stroke:rgb(0%,0%,0%);stroke-opacity:1;stroke-miterlimit:10;" d="M 126.28125 134.292969 L 137.183594 141.695312 "/>
<path style="fill:none;stroke-width:1.2;stroke-linecap:butt;stroke-linejoin:miter;stroke:rgb(0%,0%,100%);stroke-opacity:1;stroke-miterlimit:10;" d="M 137.183594 141.695312 L 148.082031 149.09375 "/>
<path style="fill:none;stroke-width:1.2;stroke-linecap:butt;stroke-linejoin:miter;stroke:rgb(0%,0%,100%);stroke-opacity:1;stroke-miterlimit:10;" d="M 148.082031 149.09375 L 159.941406 143.355469 "/>
<path style="fill:none;stroke-width:1.2;stroke-linecap:butt;stroke-linejoin:miter;stroke:rgb(0%,0%,0%);stroke-opacity:1;stroke-miterlimit:10;" d="M 159.941406 143.355469 L 171.800781 137.617188 "/>
<path style=" stroke:none;fill-rule:nonzero;fill:rgb(100%,100%,100%);fill-opacity:1;" d="M 140.082031 142.59375 L 157.082031 142.59375 L 157.082031 155.59375 L 140.082031 155.59375 Z M 140.082031 142.59375 "/>
<g style="fill:rgb(0%,0%,100%);fill-opacity:1;">
  <use xlink:href="#glyph0-3" x="140.082031" y="152.495117"/>
  <use xlink:href="#glyph0-1" x="148.06543" y="152.495117"/>
</g>
<path style="fill:none;stroke-width:1.2;stroke-linecap:butt;stroke-linejoin:miter;stroke:rgb(0%,0%,0%);stroke-opacity:1;stroke-miterlimit:10;" d="M 171.800781 137.617188 L 193.597656 152.417969 "/>
<path style="fill:none;stroke-width:1.2;stroke-linecap:butt;stroke-linejoin:miter;stroke:rgb(0%,0%,0%);stroke-opacity:1;stroke-miterlimit:10;" d="M 170.496094 144.226562 L 187.9375 156.066406 "/>
<path style="fill:none;stroke-width:1.2;stroke-linecap:butt;stroke-linejoin:miter;stroke:rgb(0%,0%,0%);stroke-opacity:1;stroke-miterlimit:10;" d="M 193.597656 152.417969 L 217.316406 140.9375 "/>
<path style="fill:none;stroke-width:1.2;stroke-linecap:butt;stroke-linejoin:miter;stroke:rgb(0%,0%,0%);stroke-opacity:1;stroke-miterlimit:10;" d="M 193.597656 152.417969 L 191.679688 178.695312 "/>
<path style="fill:none;stroke-width:1.2;stroke-linecap:butt;stroke-linejoin:miter;stroke:rgb(0%,0%,0%);stroke-opacity:1;stroke-miterlimit:10;" d="M 217.316406 140.9375 L 239.113281 155.738281 "/>
<path style="fill:none;stroke-width:1.2;stroke-linecap:butt;stroke-linejoin:miter;stroke:rgb(0%,0%,0%);stroke-opacity:1;stroke-miterlimit:10;" d="M 219.234375 114.660156 L 217.316406 140.9375 "/>
<path style="fill:none;stroke-width:1.2;stroke-linecap:butt;stroke-linejoin:miter;stroke:rgb(0%,0%,0%);stroke-opacity:1;stroke-miterlimit:10;" d="M 225.226562 117.738281 L 223.691406 138.761719 "/>
<path style="fill:none;stroke-width:1.2;stroke-linecap:butt;stroke-linejoin:miter;stroke:rgb(0%,0%,0%);stroke-opacity:1;stroke-miterlimit:10;" d="M 239.113281 155.738281 L 262.832031 144.261719 "/>
<path style="fill:none;stroke-width:1.2;stroke-linecap:butt;stroke-linejoin:miter;stroke:rgb(0%,0%,0%);stroke-opacity:1;stroke-miterlimit:10;" d="M 238.785156 149.011719 L 257.757812 139.828125 "/>
<path style="fill:none;stroke-width:1.2;stroke-linecap:butt;stroke-linejoin:miter;stroke:rgb(0%,0%,0%);stroke-opacity:1;stroke-miterlimit:10;" d="M 239.113281 155.738281 L 237.195312 182.019531 "/>
<path style="fill:none;stroke-width:1.2;stroke-linecap:butt;stroke-linejoin:miter;stroke:rgb(0%,0%,0%);stroke-opacity:1;stroke-miterlimit:10;" d="M 262.832031 144.261719 L 264.75 117.980469 "/>
<path style="fill:none;stroke-width:1.2;stroke-linecap:butt;stroke-linejoin:miter;stroke:rgb(0%,0%,0%);stroke-opacity:1;stroke-miterlimit:10;" d="M 264.75 117.980469 L 242.949219 103.179688 "/>
<path style="fill:none;stroke-width:1.2;stroke-linecap:butt;stroke-linejoin:miter;stroke:rgb(0%,0%,0%);stroke-opacity:1;stroke-miterlimit:10;" d="M 259.085938 121.632812 L 241.648438 109.789062 "/>
<path style="fill:none;stroke-width:1.2;stroke-linecap:butt;stroke-linejoin:miter;stroke:rgb(0%,0%,0%);stroke-opacity:1;stroke-miterlimit:10;" d="M 242.949219 103.179688 L 219.234375 114.660156 "/>
<path style="fill:none;stroke-width:1.2;stroke-linecap:butt;stroke-linejoin:miter;stroke:rgb(0%,0%,0%);stroke-opacity:1;stroke-miterlimit:10;" d="M 235.457031 184.582031 L 246.355469 191.984375 "/>
<path style="fill:none;stroke-width:1.2;stroke-linecap:butt;stroke-linejoin:miter;stroke:rgb(100%,0%,0%);stroke-opacity:1;stroke-miterlimit:10;" d="M 246.355469 191.984375 L 257.253906 199.382812 "/>
<path style="fill:none;stroke-width:1.2;stroke-linecap:butt;stroke-linejoin:miter;stroke:rgb(0%,0%,0%);stroke-opacity:1;stroke-miterlimit:10;" d="M 238.9375 179.453125 L 249.835938 186.855469 "/>
<path style="fill:none;stroke-width:1.2;stroke-linecap:butt;stroke-linejoin:miter;stroke:rgb(100%,0%,0%);stroke-opacity:1;stroke-miterlimit:10;" d="M 249.835938 186.855469 L 260.738281 194.253906 "/>
<path style="fill:none;stroke-width:1.2;stroke-linecap:butt;stroke-linejoin:miter;stroke:rgb(0%,0%,0%);stroke-opacity:1;stroke-miterlimit:10;" d="M 237.195312 182.019531 L 225.339844 187.757812 "/>
<path style="fill:none;stroke-width:1.2;stroke-linecap:butt;stroke-linejoin:miter;stroke:rgb(0%,0%,100%);stroke-opacity:1;stroke-miterlimit:10;" d="M 225.339844 187.757812 L 213.480469 193.496094 "/>
<path style=" stroke:none;fill-rule:nonzero;fill:rgb(100%,100%,100%);fill-opacity:1;" d="M 254.996094 190.320312 L 263.996094 190.320312 L 263.996094 203.320312 L 254.996094 203.320312 Z M 254.996094 190.320312 "/>
<g style="fill:rgb(100%,0%,0%);fill-opacity:1;">
  <use xlink:href="#glyph0-2" x="254.996094" y="200.22168"/>
</g>
<path style="fill:none;stroke-width:1.2;stroke-linecap:butt;stroke-linejoin:miter;stroke:rgb(0%,0%,100%);stroke-opacity:1;stroke-miterlimit:10;" d="M 213.480469 193.496094 L 202.578125 186.097656 "/>
<path style="fill:none;stroke-width:1.2;stroke-linecap:butt;stroke-linejoin:miter;stroke:rgb(0%,0%,0%);stroke-opacity:1;stroke-miterlimit:10;" d="M 202.578125 186.097656 L 191.679688 178.695312 "/>
<path style=" stroke:none;fill-rule:nonzero;fill:rgb(100%,100%,100%);fill-opacity:1;" d="M 205.480469 186.996094 L 222.480469 186.996094 L 222.480469 199.996094 L 205.480469 199.996094 Z M 205.480469 186.996094 "/>
<g style="fill:rgb(0%,0%,100%);fill-opacity:1;">
  <use xlink:href="#glyph0-3" x="205.480469" y="196.897461"/>
  <use xlink:href="#glyph0-1" x="213.463867" y="196.897461"/>
</g>
<path style="fill:none;stroke-width:1.2;stroke-linecap:butt;stroke-linejoin:miter;stroke:rgb(0%,0%,0%);stroke-opacity:1;stroke-miterlimit:10;" d="M 190.328125 175.90625 L 178.472656 181.644531 "/>
<path style="fill:none;stroke-width:1.2;stroke-linecap:butt;stroke-linejoin:miter;stroke:rgb(100%,0%,0%);stroke-opacity:1;stroke-miterlimit:10;" d="M 178.472656 181.644531 L 166.613281 187.382812 "/>
<path style="fill:none;stroke-width:1.2;stroke-linecap:butt;stroke-linejoin:miter;stroke:rgb(0%,0%,0%);stroke-opacity:1;stroke-miterlimit:10;" d="M 193.03125 181.484375 L 181.171875 187.226562 "/>
<path style="fill:none;stroke-width:1.2;stroke-linecap:butt;stroke-linejoin:miter;stroke:rgb(100%,0%,0%);stroke-opacity:1;stroke-miterlimit:10;" d="M 181.171875 187.226562 L 169.3125 192.964844 "/>
<path style=" stroke:none;fill-rule:nonzero;fill:rgb(100%,100%,100%);fill-opacity:1;" d="M 158.964844 183.675781 L 167.964844 183.675781 L 167.964844 196.675781 L 158.964844 196.675781 Z M 158.964844 183.675781 "/>
<g style="fill:rgb(100%,0%,0%);fill-opacity:1;">
  <use xlink:href="#glyph0-2" x="158.964844" y="193.577148"/>
</g>
</g>
</svg>

<svg xmlns="http://www.w3.org/2000/svg" xmlns:xlink="http://www.w3.org/1999/xlink" width="300pt" height="300pt" viewBox="0 0 300 300"><defs><symbol overflow="visible"><path d="M.547 1.938V-7.75h5.5v9.688zm.625-.61h4.266v-8.47H1.171zm0 0"/></symbol><symbol overflow="visible" id="a"><path d="M1.078-8.016h1.094v3.282H6.11v-3.282h1.077V0H6.11v-3.813H2.17V0H1.078zm0 0"/></symbol><symbol overflow="visible" id="b"><path d="M4.328-7.28c-.78 0-1.406.296-1.875.89-.46.585-.687 1.382-.687 2.39 0 1.012.226 1.813.687 2.406.47.586 1.094.875 1.875.875.79 0 1.414-.288 1.875-.874.457-.593.688-1.394.688-2.406 0-1.008-.23-1.805-.687-2.39-.46-.594-1.086-.89-1.875-.89zm0-.892c1.125 0 2.024.383 2.703 1.14C7.708-6.28 8.048-5.27 8.048-4c0 1.262-.34 2.273-1.016 3.03C6.353-.22 5.454.157 4.33.157S2.3-.22 1.625-.97c-.668-.75-1-1.757-1-3.03 0-1.27.332-2.28 1-3.03.676-.76 1.578-1.142 2.703-1.142zm0 0"/></symbol><symbol overflow="visible" id="c"><path d="M1.078-8.016h1.47l3.546 6.704v-6.704h1.062V0H5.688L2.124-6.703V0H1.078zm0 0"/></symbol></defs><g><path fill="#fff" d="M0 0h300v300H0z"/><path d="M35.25 127.648l10.898 7.403" stroke-width="1.2" stroke="#f00" stroke-miterlimit="10" fill="none"/><path d="M46.148 135.05l10.903 7.4" stroke-width="1.2" stroke="#000" stroke-miterlimit="10" fill="none"/><path d="M18.25 121.148h17v13h-17zm0 0" fill="#fff"/><g fill="#f00"><use xlink:href="#a" x="18.25" y="131.05"/><use xlink:href="#b" x="26.274" y="131.05"/></g><path d="M57.05 142.45l23.716-11.477M62.12 146.883l18.974-9.184M55.133 168.73l1.918-26.28M80.766 130.973l21.8 14.8M102.566 145.773l-1.918 26.278M96.19 147.95l-1.534 21.023M102.566 145.773l23.715-11.48M100.648 172.05L76.93 183.53M76.93 183.53l-21.797-14.8M78.234 176.922l-17.44-11.84M126.28 134.293l10.904 7.402" stroke-width="1.2" stroke="#000" stroke-miterlimit="10" fill="none"/><path d="M137.184 141.695l10.898 7.4M148.082 149.094l11.86-5.74" stroke-width="1.2" stroke="#00f" stroke-miterlimit="10" fill="none"/><path d="M159.94 143.355l11.86-5.738" stroke-width="1.2" stroke="#000" stroke-miterlimit="10" fill="none"/><path d="M140.082 142.594h17v13h-17zm0 0" fill="#fff"/><g fill="#00f"><use xlink:href="#c" x="140.082" y="152.495"/><use xlink:href="#a" x="148.065" y="152.495"/></g><path d="M171.8 137.617l21.798 14.8M170.496 144.227l17.44 11.84M193.598 152.418l23.718-11.48M193.598 152.418l-1.918 26.277M217.316 140.938l21.797 14.8M219.234 114.66l-1.918 26.278M225.227 117.738l-1.536 21.024M239.113 155.738l23.72-11.476M238.785 149.012l18.973-9.184M239.113 155.738l-1.918 26.282M262.832 144.262l1.918-26.282M264.75 117.98l-21.8-14.8M259.086 121.633l-17.438-11.844M242.95 103.18l-23.716 11.48M235.457 184.582l10.898 7.402" stroke-width="1.2" stroke="#000" stroke-miterlimit="10" fill="none"/><path d="M246.355 191.984l10.9 7.4" stroke-width="1.2" stroke="#f00" stroke-miterlimit="10" fill="none"/><path d="M238.938 179.453l10.898 7.402" stroke-width="1.2" stroke="#000" stroke-miterlimit="10" fill="none"/><path d="M249.836 186.855l10.902 7.4" stroke-width="1.2" stroke="#f00" stroke-miterlimit="10" fill="none"/><path d="M237.195 182.02l-11.855 5.738" stroke-width="1.2" stroke="#000" stroke-miterlimit="10" fill="none"/><path d="M225.34 187.758l-11.86 5.738" stroke-width="1.2" stroke="#00f" stroke-miterlimit="10" fill="none"/><path d="M254.996 190.32h9v13h-9zm0 0" fill="#fff"/><use xlink:href="#b" x="254.996" y="200.222" fill="#f00"/><path d="M213.48 193.496l-10.902-7.398" stroke-width="1.2" stroke="#00f" stroke-miterlimit="10" fill="none"/><path d="M202.578 186.098l-10.898-7.403" stroke-width="1.2" stroke="#000" stroke-miterlimit="10" fill="none"/><path d="M205.48 186.996h17v13h-17zm0 0" fill="#fff"/><g fill="#00f"><use xlink:href="#c" x="205.48" y="196.897"/><use xlink:href="#a" x="213.464" y="196.897"/></g><path d="M190.328 175.906l-11.855 5.74" stroke-width="1.2" stroke="#000" stroke-miterlimit="10" fill="none"/><path d="M178.473 181.645l-11.86 5.738" stroke-width="1.2" stroke="#f00" stroke-miterlimit="10" fill="none"/><path d="M193.03 181.484l-11.858 5.743" stroke-width="1.2" stroke="#000" stroke-miterlimit="10" fill="none"/><path d="M181.172 187.227l-11.86 5.738" stroke-width="1.2" stroke="#f00" stroke-miterlimit="10" fill="none"/><path d="M158.965 183.676h9v13h-9zm0 0" fill="#fff"/><use xlink:href="#b" x="158.965" y="193.577" fill="#f00"/></g></svg>
